Newaita-dark/apps/64/texstudio.svg

<svg height="64" viewBox="0 0 64 64" width="64" xmlns="http://www.w3.org/2000/svg" xmlns:xlink="http://www.w3.org/1999/xlink"><linearGradient id="a" gradientUnits="userSpaceOnUse" x1="31.75304" x2="31.75304" y1="56.067872" y2="58.71396000006"><stop offset="0" stop-opacity=".27451"/><stop offset="1" stop-opacity="0"/></linearGradient><linearGradient id="b"><stop offset="0" stop-opacity=".313726"/><stop offset=".222222" stop-opacity=".27451"/><stop offset="1" stop-opacity="0"/></linearGradient><radialGradient id="c" cx="450.908936" cy="189.579361" gradientTransform="matrix(.00000035 -.156265 -.281277 -.0000002 97.64609 127.190665)" gradientUnits="userSpaceOnUse" r="21.166656" xlink:href="#b"/><radialGradient id="d" cx="450.908936" cy="189.579361" gradientTransform="matrix(-.00000035 .156265 .281277 .0000002 -35.463065 -15.054958)" gradientUnits="userSpaceOnUse" r="21.166656" xlink:href="#b"/><radialGradient id="e" cx="450.908936" cy="189.579361" gradientTransform="matrix(-.00000035 -.156265 .281277 -.0000002 -35.463065 127.190665)" gradientUnits="userSpaceOnUse" r="21.166656" xlink:href="#b"/><radialGradient id="f" cx="450.908936" cy="189.579361" gradientTransform="matrix(.00000035 .156265 -.281277 .0000002 97.646086 -15.054959)" gradientUnits="userSpaceOnUse" r="21.166656" xlink:href="#b"/><linearGradient id="g" gradientUnits="userSpaceOnUse" x1="31.091534" x2="31.091534" y1="56.06789790428" y2="5.79222438278"><stop offset="0" stop-color="#616161"/><stop offset="1" stop-color="#757575"/></linearGradient><linearGradient id="h"><stop offset="0" stop-color="#ffa726"/><stop offset="1" stop-color="#ffb74d"/></linearGradient><linearGradient id="i" gradientUnits="userSpaceOnUse" x1="31.091534" x2="31.091534" xlink:href="#h" y1="56.06789790428" y2="5.79222438278"/><linearGradient id="j" gradientTransform="matrix(.0233883 .0233883 -.0233883 .0233883 41.675152 3.895987)" gradientUnits="userSpaceOnUse" x1="1157.781738" x2="614.728943" xlink:href="#h" y1="1072.898926" y2="504.996185"/><path d="m17.199219 56.066406h27.785156v2.648438h-27.785156zm0 0" fill="url(#a)"/><path d="m44.984375 56.066406h5.292969v-2.644531h-5.292969zm0 0" fill="url(#c)"/><path d="m17.199219 56.066406h-5.292969v2.648438h5.292969zm0 0" fill="url(#d)"/><path d="m17.199219 56.066406h-5.292969v-2.644531h5.292969zm0 0" fill="url(#e)"/><path d="m44.984375 56.066406h5.292969v2.648438h-5.292969zm0 0" fill="url(#f)"/><path d="m14.554688 5.792969c-1.46875 0-2.648438 1.179687-2.648438 2.644531v44.984375c0 1.464844 1.179688 2.644531 2.648438 2.644531h33.074218c1.464844 0 2.648438-1.179687 2.648438-2.644531v-35.722656l-11.910156-11.90625zm26.460937 0 9.261719 9.261719v-6.617188c0-1.464844-1.183594-2.644531-2.648438-2.644531zm0 0" fill="url(#g)"/><path d="m41.015625 5.792969 9.261719 9.261719v-6.617188c0-1.464844-1.183594-2.644531-2.648438-2.644531zm0 0" fill="url(#i)"/><path d="m14.554688 5.792969c-1.46875 0-2.648438 1.179687-2.648438 2.644531v.664062c0-1.46875 1.179688-2.648437 2.648438-2.648437h23.8125l11.910156 11.90625v-.660156l-11.910156-11.90625zm26.460937 0 .660156.660156h5.953125c1.464844 0 2.648438 1.179687 2.648438 2.648437v-.664062c0-1.464844-1.183594-2.644531-2.648438-2.644531zm0 0" fill="#fff" fill-opacity=".392157"/><path d="m41.015625 5.792969 9.261719 9.261719v-.984376l-8.28125-8.277343zm-29.109375 46.648437v.980469c0 1.464844 1.179688 2.644531 2.648438 2.644531h33.074218c1.464844 0 2.648438-1.179687 2.648438-2.644531v-.980469c0 1.464844-1.183594 2.644532-2.648438 2.644532h-33.074218c-1.46875 0-2.648438-1.179688-2.648438-2.644532zm0 0" fill-opacity=".235294"/><path d="m14.554688 5.605469c-1.566407 0-2.835938 1.265625-2.835938 2.832031v44.984375c0 1.566406 1.269531 2.832031 2.835938 2.832031h33.074218c1.566406 0 2.835938-1.265625 2.835938-2.832031v-35.722656c0-.050781-.019532-.097657-.054688-.132813l-11.910156-11.90625c-.035156-.035156-.082031-.054687-.132812-.054687zm26.460937 0c-.078125 0-.144531.042969-.175781.113281-.027344.070312-.011719.152344.042968.207031l9.261719 9.261719c.050781.050781.132813.066406.203125.039062.070313-.027343.117188-.097656.117188-.171874v-6.617188c0-1.566406-1.269532-2.832031-2.835938-2.832031zm-26.460937.375h23.734374l11.800782 11.796875v35.644531c0 1.363281-1.09375 2.457031-2.460938 2.457031h-33.074218c-1.367188 0-2.460938-1.09375-2.460938-2.457031v-44.984375c0-1.363281 1.09375-2.457031 2.460938-2.457031zm26.914062 0h6.160156c1.367188 0 2.460938 1.09375 2.460938 2.457031v6.164062zm0 0" fill="#212121"/><path d="m49.742188 34.34375c-.675782 0-1.355469.261719-1.871094.777344l-10.757813 10.757812 6.546875 6.550782 10.757813-10.757813c1.039062-1.039063 1.039062-2.707031 0-3.742187l-2.804688-2.808594c-.519531-.515625-1.195312-.777344-1.871093-.777344zm-14.035157 12.941406c-.148437.148438-.269531.34375-.335937.570313l-1.871094 6.550781c-.28125.996094.640625 1.917969 1.636719 1.632812l6.546875-1.871093c.230468-.066407.421875-.183594.574218-.335938zm0 0" fill="url(#j)"/><path d="m49.675781 34.390625c-.675781 0-1.355469.257813-1.871093.777344l-10.757813 10.757812.359375.359375 10.398438-10.398437c.03125-.03125.066406-.0625.097656-.09375.035156-.03125.066406-.058594.101562-.085938.054688-.042969.105469-.085937.160156-.121093.054688-.039063.109376-.074219.167969-.109376.074219-.042968.152344-.085937.230469-.121093.273438-.128907.5625-.203125.859375-.234375.082031-.007813.167969-.011719.253906-.011719.082031 0 .167969.003906.253907.011719.292968.03125.585937.105468.859374.234375.078126.035156.152344.078125.230469.121093.054688.035157.109375.070313.164063.109376.054687.035156.109375.078124.160156.121093.035156.027344.070312.054688.101562.085938.035157.03125.066407.0625.101563.09375l2.804687 2.808593.070313.070313c.007813.007813.015625.019531.023437.027344.015626.015625.03125.03125.046876.050781.007812.007812.015624.019531.023437.027344.015625.019531.03125.039062.046875.058594.003906.007812.007812.011718.011719.019531.023437.023437.042969.050781.0625.078125.003906.007812.007812.011718.011719.019531.015624.019531.03125.042969.042968.066406.007813.003907.011719.011719.015625.019531.015625.023438.03125.046876.042969.070313.003906.003906.007812.011719.011719.015625.015625.027344.03125.058594.050781.089844.015625.027344.027344.058594.042969.085937.003906.007813.007812.011719.011719.019531.011718.023438.019531.046876.03125.070313.003906.007813.007812.015625.011718.023437.011719.027344.023438.058594.035156.089844.011719.03125.027344.0625.035157.097656h.003906c.007813.03125.019531.0625.03125.097657v.007812c.011719.03125.019531.0625.027344.097657.019531.066406.03125.132812.046875.203124v.003907c.003906.03125.011718.0625.015625.097656.109375-.789063-.140625-1.617187-.753907-2.230469l-2.804687-2.804687c-.519531-.519531-1.195313-.777344-1.871094-.777344zm-14.035156 12.9375c-.148437.152344-.269531.34375-.335937.574219l-1.871094 6.546875c-.070313.253906-.066406.503906 0 .726562v-.003906l1.871094-6.550781c.066406-.230469.1875-.421875.335937-.570313l6.117187 6.113281c.167969-.066406.3125-.167968.433594-.285156zm0 0" fill="#d7d7d7" fill-opacity=".588235" fill-rule="evenodd"/><path d="m55.175781 39.46875c-.070312.5625-.324219 1.105469-.757812 1.539062l-9.355469 9.355469-1.402344 1.40625-6.21875-6.21875-.328125.328125 6.546875 6.550782 10.757813-10.757813c.605469-.605469.855469-1.421875.757812-2.203125zm-13.3125 13.972656c-.054687.023438-.117187.046875-.179687.066406l-6.546875 1.871094c-.753907.214844-1.464844-.261718-1.644531-.9375-.253907.984375.660156 1.878906 1.644531 1.597656l6.546875-1.871093c.230468-.066407.421875-.183594.574218-.335938zm0 0" fill-opacity=".235294"/><g fill="none" stroke="#212121" stroke-linecap="round" stroke-linejoin="round" stroke-width="3" transform="matrix(.125012 0 0 .125012 0 26.877566)"><path d="m412.866823 65.941921c-8.311706-8.280459-21.654182-8.280459-29.934641 0l-86.054282 86.054283 52.369998 52.401246 86.054283-86.054283c8.311706-8.311706 8.311706-21.654182 0-29.934641zm0 0"/><path d="m285.628974 163.245129c-1.187387 1.187387-2.156044 2.749738-2.687244 4.562065l-14.96732 52.401246c-2.249785 7.967989 5.12451 15.342285 13.092499 13.061252l52.369999-14.96732c1.843574-.5312 3.374678-1.46861 4.593312-2.687244zm0 0"/></g></svg>

<?xml version="1.0" encoding="UTF-8"?>
<svg xmlns="http://www.w3.org/2000/svg" xmlns:xlink="http://www.w3.org/1999/xlink" width="64px" height="64px" viewBox="0 0 64 64" version="1.1">
<defs>
<linearGradient id="linear0" gradientUnits="userSpaceOnUse" x1="254" y1="233.5" x2="254" y2="254.666672" gradientTransform="matrix(0.125012,0,0,0.125012,-0.00000763012,26.87757)">
<stop offset="0" style="stop-color:rgb(0%,0%,0%);stop-opacity:0.27451;"/>
<stop offset="1" style="stop-color:rgb(0%,0%,0%);stop-opacity:0;"/>
</linearGradient>
<radialGradient id="radial0" gradientUnits="userSpaceOnUse" cx="450.908936" cy="189.579361" fx="450.908936" fy="189.579361" r="21.166656" gradientTransform="matrix(0.000000348341,-0.156265,-0.281277,-0.000000203077,97.64609,127.190665)">
<stop offset="0" style="stop-color:rgb(0%,0%,0%);stop-opacity:0.313726;"/>
<stop offset="0.222222" style="stop-color:rgb(0%,0%,0%);stop-opacity:0.27451;"/>
<stop offset="1" style="stop-color:rgb(0%,0%,0%);stop-opacity:0;"/>
</radialGradient>
<radialGradient id="radial1" gradientUnits="userSpaceOnUse" cx="450.908936" cy="189.579361" fx="450.908936" fy="189.579361" r="21.166656" gradientTransform="matrix(-0.000000348341,0.156265,0.281277,0.000000203077,-35.463065,-15.054958)">
<stop offset="0" style="stop-color:rgb(0%,0%,0%);stop-opacity:0.313726;"/>
<stop offset="0.222222" style="stop-color:rgb(0%,0%,0%);stop-opacity:0.27451;"/>
<stop offset="1" style="stop-color:rgb(0%,0%,0%);stop-opacity:0;"/>
</radialGradient>
<radialGradient id="radial2" gradientUnits="userSpaceOnUse" cx="450.908936" cy="189.579361" fx="450.908936" fy="189.579361" r="21.166656" gradientTransform="matrix(-0.000000348341,-0.156265,0.281277,-0.000000203077,-35.463065,127.190665)">
<stop offset="0" style="stop-color:rgb(0%,0%,0%);stop-opacity:0.313726;"/>
<stop offset="0.222222" style="stop-color:rgb(0%,0%,0%);stop-opacity:0.27451;"/>
<stop offset="1" style="stop-color:rgb(0%,0%,0%);stop-opacity:0;"/>
</radialGradient>
<radialGradient id="radial3" gradientUnits="userSpaceOnUse" cx="450.908936" cy="189.579361" fx="450.908936" fy="189.579361" r="21.166656" gradientTransform="matrix(0.000000348341,0.156265,-0.281277,0.000000203077,97.646086,-15.054959)">
<stop offset="0" style="stop-color:rgb(0%,0%,0%);stop-opacity:0.313726;"/>
<stop offset="0.222222" style="stop-color:rgb(0%,0%,0%);stop-opacity:0.27451;"/>
<stop offset="1" style="stop-color:rgb(0%,0%,0%);stop-opacity:0;"/>
</radialGradient>
<linearGradient id="linear1" gradientUnits="userSpaceOnUse" x1="940" y1="1695.118164" x2="940" y2="175.118118" gradientTransform="matrix(0.0330761,0,0,0.0330761,0,0)">
<stop offset="0" style="stop-color:rgb(38.039216%,38.039216%,38.039216%);stop-opacity:1;"/>
<stop offset="1" style="stop-color:rgb(45.882353%,45.882353%,45.882353%);stop-opacity:1;"/>
</linearGradient>
<linearGradient id="linear2" gradientUnits="userSpaceOnUse" x1="940" y1="1695.118164" x2="940" y2="175.118118" gradientTransform="matrix(0.0330761,0,0,0.0330761,0,0)">
<stop offset="0" style="stop-color:rgb(100%,65.490198%,14.901961%);stop-opacity:1;"/>
<stop offset="1" style="stop-color:rgb(100%,71.764708%,30.19608%);stop-opacity:1;"/>
</linearGradient>
<linearGradient id="linear3" gradientUnits="userSpaceOnUse" x1="1157.781738" y1="1072.898926" x2="614.728943" y2="504.996185" gradientTransform="matrix(0.0233883,0.0233883,-0.0233883,0.0233883,41.675152,3.895987)">
<stop offset="0" style="stop-color:rgb(100%,65.490198%,14.901961%);stop-opacity:1;"/>
<stop offset="1" style="stop-color:rgb(100%,71.764708%,30.19608%);stop-opacity:1;"/>
</linearGradient>
</defs>
<g id="surface1">
<path style=" stroke:none;fill-rule:nonzero;fill:url(#linear0);" d="M 17.199219 56.066406 L 44.984375 56.066406 L 44.984375 58.714844 L 17.199219 58.714844 Z M 17.199219 56.066406 "/>
<path style=" stroke:none;fill-rule:nonzero;fill:url(#radial0);" d="M 44.984375 56.066406 L 50.277344 56.066406 L 50.277344 53.421875 L 44.984375 53.421875 Z M 44.984375 56.066406 "/>
<path style=" stroke:none;fill-rule:nonzero;fill:url(#radial1);" d="M 17.199219 56.066406 L 11.90625 56.066406 L 11.90625 58.714844 L 17.199219 58.714844 Z M 17.199219 56.066406 "/>
<path style=" stroke:none;fill-rule:nonzero;fill:url(#radial2);" d="M 17.199219 56.066406 L 11.90625 56.066406 L 11.90625 53.421875 L 17.199219 53.421875 Z M 17.199219 56.066406 "/>
<path style=" stroke:none;fill-rule:nonzero;fill:url(#radial3);" d="M 44.984375 56.066406 L 50.277344 56.066406 L 50.277344 58.714844 L 44.984375 58.714844 Z M 44.984375 56.066406 "/>
<path style=" stroke:none;fill-rule:nonzero;fill:url(#linear1);" d="M 14.554688 5.792969 C 13.085938 5.792969 11.90625 6.972656 11.90625 8.4375 L 11.90625 53.421875 C 11.90625 54.886719 13.085938 56.066406 14.554688 56.066406 L 47.628906 56.066406 C 49.09375 56.066406 50.277344 54.886719 50.277344 53.421875 L 50.277344 17.699219 L 38.367188 5.792969 Z M 41.015625 5.792969 L 50.277344 15.054688 L 50.277344 8.4375 C 50.277344 6.972656 49.09375 5.792969 47.628906 5.792969 Z M 41.015625 5.792969 "/>
<path style=" stroke:none;fill-rule:nonzero;fill:url(#linear2);" d="M 41.015625 5.792969 L 50.277344 15.054688 L 50.277344 8.4375 C 50.277344 6.972656 49.09375 5.792969 47.628906 5.792969 Z M 41.015625 5.792969 "/>
<path style=" stroke:none;fill-rule:nonzero;fill:rgb(100%,100%,100%);fill-opacity:0.392157;" d="M 14.554688 5.792969 C 13.085938 5.792969 11.90625 6.972656 11.90625 8.4375 L 11.90625 9.101562 C 11.90625 7.632812 13.085938 6.453125 14.554688 6.453125 L 38.367188 6.453125 L 50.277344 18.359375 L 50.277344 17.699219 L 38.367188 5.792969 Z M 41.015625 5.792969 L 41.675781 6.453125 L 47.628906 6.453125 C 49.09375 6.453125 50.277344 7.632812 50.277344 9.101562 L 50.277344 8.4375 C 50.277344 6.972656 49.09375 5.792969 47.628906 5.792969 Z M 41.015625 5.792969 "/>
<path style=" stroke:none;fill-rule:nonzero;fill:rgb(0%,0%,0%);fill-opacity:0.235294;" d="M 41.015625 5.792969 L 50.277344 15.054688 L 50.277344 14.070312 L 41.996094 5.792969 Z M 11.90625 52.441406 L 11.90625 53.421875 C 11.90625 54.886719 13.085938 56.066406 14.554688 56.066406 L 47.628906 56.066406 C 49.09375 56.066406 50.277344 54.886719 50.277344 53.421875 L 50.277344 52.441406 C 50.277344 53.90625 49.09375 55.085938 47.628906 55.085938 L 14.554688 55.085938 C 13.085938 55.085938 11.90625 53.90625 11.90625 52.441406 Z M 11.90625 52.441406 "/>
<path style=" stroke:none;fill-rule:nonzero;fill:rgb(12.941177%,12.941177%,12.941177%);fill-opacity:1;" d="M 14.554688 5.605469 C 12.988281 5.605469 11.71875 6.871094 11.71875 8.4375 L 11.71875 53.421875 C 11.71875 54.988281 12.988281 56.253906 14.554688 56.253906 L 47.628906 56.253906 C 49.195312 56.253906 50.464844 54.988281 50.464844 53.421875 L 50.464844 17.699219 C 50.464844 17.648438 50.445312 17.601562 50.410156 17.566406 L 38.5 5.660156 C 38.464844 5.625 38.417969 5.605469 38.367188 5.605469 Z M 41.015625 5.605469 C 40.9375 5.605469 40.871094 5.648438 40.839844 5.71875 C 40.8125 5.789062 40.828125 5.871094 40.882812 5.925781 L 50.144531 15.1875 C 50.195312 15.238281 50.277344 15.253906 50.347656 15.226562 C 50.417969 15.199219 50.464844 15.128906 50.464844 15.054688 L 50.464844 8.4375 C 50.464844 6.871094 49.195312 5.605469 47.628906 5.605469 Z M 14.554688 5.980469 L 38.289062 5.980469 L 50.089844 17.777344 L 50.089844 53.421875 C 50.089844 54.785156 48.996094 55.878906 47.628906 55.878906 L 14.554688 55.878906 C 13.1875 55.878906 12.09375 54.785156 12.09375 53.421875 L 12.09375 8.4375 C 12.09375 7.074219 13.1875 5.980469 14.554688 5.980469 Z M 41.46875 5.980469 L 47.628906 5.980469 C 48.996094 5.980469 50.089844 7.074219 50.089844 8.4375 L 50.089844 14.601562 Z M 41.46875 5.980469 "/>
<path style=" stroke:none;fill-rule:nonzero;fill:url(#linear3);" d="M 49.742188 34.34375 C 49.066406 34.34375 48.386719 34.605469 47.871094 35.121094 L 37.113281 45.878906 L 43.660156 52.429688 L 54.417969 41.671875 C 55.457031 40.632812 55.457031 38.964844 54.417969 37.929688 L 51.613281 35.121094 C 51.09375 34.605469 50.417969 34.34375 49.742188 34.34375 Z M 35.707031 47.285156 C 35.558594 47.433594 35.4375 47.628906 35.371094 47.855469 L 33.5 54.40625 C 33.21875 55.402344 34.140625 56.324219 35.136719 56.039062 L 41.683594 54.167969 C 41.914062 54.101562 42.105469 53.984375 42.257812 53.832031 Z M 35.707031 47.285156 "/>
<path style=" stroke:none;fill-rule:evenodd;fill:rgb(84.313726%,84.313726%,84.313726%);fill-opacity:0.588235;" d="M 49.675781 34.390625 C 49 34.390625 48.320312 34.648438 47.804688 35.167969 L 37.046875 45.925781 L 37.40625 46.285156 L 47.804688 35.886719 C 47.835938 35.855469 47.871094 35.824219 47.902344 35.792969 C 47.9375 35.761719 47.96875 35.734375 48.003906 35.707031 C 48.058594 35.664062 48.109375 35.621094 48.164062 35.585938 C 48.21875 35.546875 48.273438 35.511719 48.332031 35.476562 C 48.40625 35.433594 48.484375 35.390625 48.5625 35.355469 C 48.835938 35.226562 49.125 35.152344 49.421875 35.121094 C 49.503906 35.113281 49.589844 35.109375 49.675781 35.109375 C 49.757812 35.109375 49.84375 35.113281 49.929688 35.121094 C 50.222656 35.152344 50.515625 35.226562 50.789062 35.355469 C 50.867188 35.390625 50.941406 35.433594 51.019531 35.476562 C 51.074219 35.511719 51.128906 35.546875 51.183594 35.585938 C 51.238281 35.621094 51.292969 35.664062 51.34375 35.707031 C 51.378906 35.734375 51.414062 35.761719 51.445312 35.792969 C 51.480469 35.824219 51.511719 35.855469 51.546875 35.886719 L 54.351562 38.695312 C 54.375 38.71875 54.398438 38.742188 54.421875 38.765625 C 54.429688 38.773438 54.4375 38.785156 54.445312 38.792969 C 54.460938 38.808594 54.476562 38.824219 54.492188 38.84375 C 54.5 38.851562 54.507812 38.863281 54.515625 38.871094 C 54.53125 38.890625 54.546875 38.910156 54.5625 38.929688 C 54.566406 38.9375 54.570312 38.941406 54.574219 38.949219 C 54.597656 38.972656 54.617188 39 54.636719 39.027344 C 54.640625 39.035156 54.644531 39.039062 54.648438 39.046875 C 54.664062 39.066406 54.679688 39.089844 54.691406 39.113281 C 54.699219 39.117188 54.703125 39.125 54.707031 39.132812 C 54.722656 39.15625 54.738281 39.179688 54.75 39.203125 C 54.753906 39.207031 54.757812 39.214844 54.761719 39.21875 C 54.777344 39.246094 54.792969 39.277344 54.8125 39.308594 C 54.828125 39.335938 54.839844 39.367188 54.855469 39.394531 C 54.859375 39.402344 54.863281 39.40625 54.867188 39.414062 C 54.878906 39.4375 54.886719 39.460938 54.898438 39.484375 C 54.902344 39.492188 54.90625 39.5 54.910156 39.507812 C 54.921875 39.535156 54.933594 39.566406 54.945312 39.597656 C 54.957031 39.628906 54.972656 39.660156 54.980469 39.695312 C 54.980469 39.695312 54.980469 39.695312 54.984375 39.695312 C 54.992188 39.726562 55.003906 39.757812 55.015625 39.792969 C 55.015625 39.792969 55.015625 39.796875 55.015625 39.800781 C 55.027344 39.832031 55.035156 39.863281 55.042969 39.898438 C 55.0625 39.964844 55.074219 40.03125 55.089844 40.101562 C 55.089844 40.101562 55.089844 40.101562 55.089844 40.105469 C 55.09375 40.136719 55.101562 40.167969 55.105469 40.203125 C 55.214844 39.414062 54.964844 38.585938 54.351562 37.972656 L 51.546875 35.167969 C 51.027344 34.648438 50.351562 34.390625 49.675781 34.390625 Z M 35.640625 47.328125 C 35.492188 47.480469 35.371094 47.671875 35.304688 47.902344 L 33.433594 54.449219 C 33.363281 54.703125 33.367188 54.953125 33.433594 55.175781 C 33.433594 55.175781 33.433594 55.171875 33.433594 55.171875 L 35.304688 48.621094 C 35.371094 48.390625 35.492188 48.199219 35.640625 48.050781 L 41.757812 54.164062 C 41.925781 54.097656 42.070312 53.996094 42.191406 53.878906 Z M 35.640625 47.328125 "/>
<path style=" stroke:none;fill-rule:nonzero;fill:rgb(0%,0%,0%);fill-opacity:0.235294;" d="M 55.175781 39.46875 C 55.105469 40.03125 54.851562 40.574219 54.417969 41.007812 L 45.0625 50.363281 L 43.660156 51.769531 L 37.441406 45.550781 L 37.113281 45.878906 L 43.660156 52.429688 L 54.417969 41.671875 C 55.023438 41.066406 55.273438 40.25 55.175781 39.46875 Z M 41.863281 53.441406 C 41.808594 53.464844 41.746094 53.488281 41.683594 53.507812 L 35.136719 55.378906 C 34.382812 55.59375 33.671875 55.117188 33.492188 54.441406 C 33.238281 55.425781 34.152344 56.320312 35.136719 56.039062 L 41.683594 54.167969 C 41.914062 54.101562 42.105469 53.984375 42.257812 53.832031 Z M 41.863281 53.441406 "/>
<path style="fill:none;stroke-width:3;stroke-linecap:round;stroke-linejoin:round;stroke:rgb(12.941177%,12.941177%,12.941177%);stroke-opacity:1;stroke-miterlimit:4;" d="M 412.866823 65.941921 C 404.555117 57.661462 391.212641 57.661462 382.932182 65.941921 L 296.8779 151.996204 L 349.247898 204.39745 L 435.302181 118.343167 C 443.613887 110.031461 443.613887 96.688985 435.302181 88.408526 Z M 412.866823 65.941921 " transform="matrix(0.125012,0,0,0.125012,0,26.877566)"/>
<path style="fill:none;stroke-width:3;stroke-linecap:round;stroke-linejoin:round;stroke:rgb(12.941177%,12.941177%,12.941177%);stroke-opacity:1;stroke-miterlimit:4;" d="M 285.628974 163.245129 C 284.441587 164.432516 283.47293 165.994867 282.94173 167.807194 L 267.97441 220.20844 C 265.724625 228.176429 273.09892 235.550725 281.066909 233.269692 L 333.436908 218.302372 C 335.280482 217.771172 336.811586 216.833762 338.03022 215.615128 Z M 285.628974 163.245129 " transform="matrix(0.125012,0,0,0.125012,0,26.877566)"/>
</g>
</svg>
